src/assets/whiteboard_icons/small_text_tool.svg

<svg width="24" height="24" viewBox="0 0 24 24" fill="none" xmlns="http://www.w3.org/2000/svg">
<path d="M13.0713 20H11.3763L10.4313 17.405H6.27635L5.33135 20H3.68135L7.41635 10.1H9.33635L13.0713 20ZM6.72635 16.1H9.98135L8.36135 11.48L6.72635 16.1ZM18.9369 15.185C18.9369 14.685 18.7969 14.3 18.5169 14.03C18.2469 13.75 17.8719 13.61 17.3919 13.61C16.9419 13.61 16.5569 13.715 16.2369 13.925C15.9169 14.135 15.6819 14.475 15.5319 14.945L14.1819 14.375C14.3719 13.765 14.7419 13.275 15.2919 12.905C15.8519 12.535 16.5719 12.35 17.4519 12.35C18.0519 12.35 18.5819 12.45 19.0419 12.65C19.5019 12.84 19.8619 13.13 20.1219 13.52C20.3919 13.91 20.5269 14.41 20.5269 15.02V18.365C20.5269 18.735 20.7119 18.92 21.0819 18.92C21.2619 18.92 21.4369 18.895 21.6069 18.845L21.5169 19.955C21.2869 20.065 20.9969 20.12 20.6469 20.12C20.3269 20.12 20.0369 20.065 19.7769 19.955C19.5269 19.835 19.3269 19.66 19.1769 19.43C19.0369 19.19 18.9669 18.895 18.9669 18.545V18.44L19.2969 18.425C19.2069 18.815 19.0219 19.14 18.7419 19.4C18.4619 19.65 18.1369 19.84 17.7669 19.97C17.3969 20.09 17.0219 20.15 16.6419 20.15C16.1719 20.15 15.7469 20.075 15.3669 19.925C14.9969 19.775 14.7019 19.55 14.4819 19.25C14.2719 18.94 14.1669 18.56 14.1669 18.11C14.1669 17.55 14.3469 17.09 14.7069 16.73C15.0769 16.37 15.5969 16.125 16.2669 15.995L19.1769 15.425L19.1619 16.55L17.0469 16.985C16.6269 17.065 16.3119 17.18 16.1019 17.33C15.8919 17.48 15.7869 17.7 15.7869 17.99C15.7869 18.27 15.8919 18.495 16.1019 18.665C16.3219 18.825 16.6119 18.905 16.9719 18.905C17.2219 18.905 17.4619 18.875 17.6919 18.815C17.9319 18.755 18.1469 18.66 18.3369 18.53C18.5269 18.39 18.6719 18.215 18.7719 18.005C18.8819 17.785 18.9369 17.525 18.9369 17.225V15.185Z" fill="#343440"/>
<path fill-rule="evenodd" clip-rule="evenodd" d="M21.0172 5.85126C21.3101 6.14416 21.3101 6.61903 21.0172 6.91192L18.2804 9.64876C17.9875 9.94166 17.5126 9.94166 17.2197 9.64876L14.4829 6.91192C14.19 6.61903 14.19 6.14415 14.4829 5.85126C14.7757 5.55837 15.2506 5.55837 15.5435 5.85126L17.75 8.05777L19.9565 5.85126C20.2494 5.55837 20.7243 5.55837 21.0172 5.85126Z" fill="#343440"/>
</svg>

<svg fill="none" height="24" viewBox="0 0 24 24" width="24" xmlns="http://www.w3.org/2000/svg"><g fill="#343440"><path d="m13.0713 20h-1.695l-.945-2.595h-4.15495l-.945 2.595h-1.65l3.735-9.9h1.92zm-6.34495-3.9h3.255l-1.62-4.62zm12.21055-.915c0-.5-.14-.885-.42-1.155-.27-.28-.645-.42-1.125-.42-.45 0-.835.105-1.155.315s-.555.55-.705 1.02l-1.35-.57c.19-.61.56-1.1 1.11-1.47.56-.37 1.28-.555 2.16-.555.6 0 1.13.1 1.59.3.46.19.82.48 1.08.87.27.39.405.89.405 1.5v3.345c0 .37.185.555.555.555.18 0 .355-.025.525-.075l-.09 1.11c-.23.11-.52.165-.87.165-.32 0-.61-.055-.87-.165-.25-.12-.45-.295-.6-.525-.14-.24-.21-.535-.21-.885v-.105l.33-.015c-.09.39-.275.715-.555.975-.28.25-.605.44-.975.57-.37.12-.745.18-1.125.18-.47 0-.895-.075-1.275-.225-.37-.15-.665-.375-.885-.675-.21-.31-.315-.69-.315-1.14 0-.56.18-1.02.54-1.38.37-.36.89-.605 1.56-.735l2.91-.57-.015 1.125-2.115.435c-.42.08-.735.195-.945.345s-.315.37-.315.66c0 .28.105.505.315.675.22.16.51.24.87.24.25 0 .49-.03.72-.09.24-.06.455-.155.645-.285.19-.14.335-.315.435-.525.11-.22.165-.48.165-.78z"/><path clip-rule="evenodd" d="m21.0172 5.85126c.2929.2929.2929.76777 0 1.06066l-2.7368 2.73684c-.2929.2929-.7678.2929-1.0607 0l-2.7368-2.73684c-.2929-.29289-.2929-.76777 0-1.06066.2928-.29289.7677-.29289 1.0606 0l2.2065 2.20651 2.2065-2.20651c.2929-.29289.7678-.29289 1.0607 0z" fill-rule="evenodd"/></g></svg>
